X:1
T:Title
%%score { ( 1 3 ) | ( 2 4 ) }
L:1/8
Q:1/4=110
M:4/4
K:G
V:1 treble nm="Grand Piano"
V:3 treble 
V:2 bass 
V:4 bass 
V:1
 B2 B>c B2 A2 | [G,B,G]6 z2 | [G,CE]2 [G,CE]>[G,CE] [CEG]2 [EGc]2 | [GB]4 A2 z2 | B2 B>A G2 E2 | %5
w: J.~H.~Tenney * * * *|||||
 [B,D]6 z2 | [DG]2 [EG]>[EA] [DB]2 [CDA]2 | [B,DG]6 z2 | [CEG]2 [CEG]>[CEG] [EGc]2 [Ge]2 | %9
w: ||||
 d2 B4 z2 | B2 B>A GAB^c | [Fd]6 z2 | [DGB]2 [DGB]>[DGB] [CFA]2 [B,EG]2 | [CEG]2 [G,CE]4 z2 | %14
w: |||||
 [G,B,D]4 [B,DG]4 | B4 d4 | d2 B>G [CFA]2 [DFB]>[CFA] | [B,DG]6 z2 |] %18
w: ||||
V:2
 [G,D]2 [G,D]>[G,E] [G,D]2 [D,F,C]2 | G,,6 z2 | C,2 C,>C, C,2 C,2 | z4[K:treble] F2 z2 | %4
 [G,D]2 [D,F,D]>[D,F,C] [E,G,B,]2 [C,G,C]2 | [G,,G,]6 z2 | [B,,G,]2 [C,G,]>[C,G,] [D,G,]2 D,2 | %7
 G,,6 z2 | C,2 C,>C, C,2 [C,C]2 | [G,B,G]2 [G,DG]4 z2 | %10
 [G,DG]2 [G,DG]>[K:bass][F,A,D] [B,E][A,F] [E,G,]2 | [D,A,]6 z2 | G,2 G,>G, D,2 E,2 | C,2 C,4 z2 | %14
 G,,4 G,,4 | [G,DG]4 [G,B,G]4 | [G,B,G]2 [G,G]>[G,B,][K:bass] D,2 D,>D, | G,,6 z2 |] %18
V:3
 x8 | x8 | x8 | D6 z2 | x8 | x8 | x8 | x8 | x8 | x8 | z4 z2 G2 | x8 | x8 | x8 | x8 | x8 | x8 | %17
 x8 |] %18
V:4
 x8 | x8 | x8 | D,6[K:treble] z2 | x8 | x8 | x8 | x8 | x8 | x8 | z4[K:bass] E,2 z2 | x8 | x8 | x8 | %14
 x8 | x8 | x4[K:bass] x4 | x8 |] %18

